/* XPM */
static char *chevron_down[] = {
/* columns rows colors chars-per-pixel */
"40 40 2 1 ",
"  c None",
". c #AE8593",
/* pixels */
"                                        ",
"                                        ",
"                                        ",
"                                        ",
"                                        ",
"                                        ",
"                                        ",
"                                        ",
"                                        ",
"                                        ",
"                                        ",
"      ............................      ",
"     ..............................     ",
"     ..............................     ",
"     ..............................     ",
"     ..............................     ",
"      ............................      ",
"       ..........................       ",
"        ........................        ",
"        ........................        ",
"         ......................         ",
"          ....................          ",
"           ..................           ",
"           ..................           ",
"            ................            ",
"             ..............             ",
"              ............              ",
"              ............              ",
"               ..........               ",
"                ........                ",
"                 ......                 ",
"                 ......                 ",
"                  ....                  ",
"                                        ",
"                                        ",
"                                        ",
"                                        ",
"                                        ",
"                                        ",
"                                        "
};
